X:1
T:A Hornepype (shortened)
T:A Hornepype (shortened)
T:kept in the British Library, London
T:Hugh Aston (+1522) ca. 1500
C:Hugh Aston (+1522) ca. 1500
%%score { ( 1 5 ) | ( 2 3 4 ) }
L:1/8
Q:1/4=72
M:6/4
K:F
V:1 treble nm="Virginal" snm="Vir."
V:5 treble 
V:2 bass 
V:3 bass 
V:4 bass 
V:1
 EF GF G/F/E/F/ G2 E4 | A,B, CB, (3CB,A, C2 A,4 | EF B2 A2 G3 F E2 | A,B, _E2 D2 C3 B, A,2 | %4
 =EF cB/c/ BA G3 F E2 | A,B, FE/F/ ED C3 B, A,2 | EFGABc defe f/e/d/e/ | fe/f/ edcB A3 G F2 | %8
[K:bass] E,F,G,A,B,C[K:treble] DEFDFE | A3 GFE D3 C/D/ CA, | %10
 B,CDEFD E/F/[Q:1/4=71]"^.7"G/[Q:1/4=71]"^.2"A/[Q:1/4=70]"^.4" B/[Q:1/4=69]"^.2"A/[Q:1/4=67]"^.6"G/[Q:1/4=65]"^.6"F/[Q:1/4=63] E2 || %11
[Q:3/4=53] F3 F C2 D3 D C2 | _E3 E D2 C3 C G,2 | F3 F C2 D3 D C2 | _E3 E D2 C3 C G,2 | %15
 A,=B,CDED CB, A,4 | EFGA_BA GF E4 | ABcded cB A4 | efgagf edcBAG | f2 gfed cB/c/ dcBA | %20
 G2 _e2 d2 d2 _edcB | A3 B A2 F4 F2 | %22
[Q:1/4=158]"^.4" F4[Q:1/4=153][Q:1/4=150] F2[Q:1/4=140]"^.5" F2[Q:1/4=126]"^.7" F2[Q:1/4=108] !fermata!E2 || %23
[K:bass][Q:3/4=58] F,E,/F,/ A,F, A,G,/A,/ CA, CB,/C/[K:treble] FC | ED/E/ GE GF/G/ cG cB/c/ ec | %25
 fe/f/ adfc dAcFAD | EFGCDE efgcde | ABcFGA fgadef | efgcde EFGCDE | A4 A2 A4 A2 | G4 G2 G4 G2 | %31
 c4 c2 c4 c2 | c4 c2 c4 c2 | A3 GFE D3 CB,A, | %34
 B3[Q:1/4=172]"^.8" A[Q:1/4=171]"^.6"G[Q:1/4=169]"^.8"F[Q:1/4=167]"^.4" E[Q:1/4=164]"^.3"D[Q:1/4=160]"^.5"E[Q:1/4=155]"^.8"D[Q:1/4=150]"^.4"C[Q:1/4=144]!fermata!B, || %35
[M:6/8][Q:3/8=81] A,>B,C D/C/D/E/F | E>FG- G/F/E/D/C | F>GA B/A/G/F/E/D/ | %38
 E/F/G/A/B/A/ G/F/E/D/C/B,/ | A,DC A, C2 | D/C/B,/C/ E2 C2 | D/C/B,/C/ F2 C2 | D/C/B,/C/ G2 C2 | %43
 D/C/B,/C/ A2 F2 | D/C/B,/C/ B2 G2 | D/C/B,/C/ c2 A2 | D/C/B,/C/ e2 c2 | D/C/B,/C/ f2 c2 | %48
 D/C/B,/C/ g2 c2 | D/C/B,/C/ a- a/g/f/e/d/c/ | B/A/G/F/E/D/[K:bass] C/B,/A,/G,/F,/E,/ | %51
 F,/G,/A,/B,/A,/F,/ A,/B,/C/A,/C/D/ |[K:treble] E/F/G/A/G/F/ E/D/C/B,/A,/G,/ | %53
 F/G/A/B/A/F/ A/B/c/A/c/d/ | e/f/g/a/g/f/ e/d/c/B/A/G/ | f/g/f/e/d/c/ B/c/B/A/G/F/ | %56
 E/F/E/D/C/B,/[K:bass] A,/B,/A,/G,/F,/E,/ | A,>F,G, A,F,G, | A,>F,A, G,B,G, | A,>F,G, A,F,G, | %60
 A,>F,A, G,B,G, |[K:treble] f2 e d2 c | B2 A G>AG | fg/f/e/d/ cd/c/B/A/ | GB/A/G/F/ EF/E/D/E/ | %65
 FG/F/E/D/ CD/C/B,/A,/ | %66
 C/[Q:1/4=121]"^.9"D/[Q:1/4=121]"^.6"E/[Q:1/4=121]F/[Q:1/4=120]G/[Q:1/4=118]"^.5"A/[Q:1/4=116]"^.4" B/[Q:1/4=113]"^.8"A/[Q:1/4=110]"^.6"G/[Q:1/4=106]"^.6"F/[Q:1/4=102]!breath!!fermata!E | %67
[Q:1/4=102] !fermata!z d[Q:1/4=101]"^.9"c[Q:1/4=101]"^.8" B>[Q:1/4=101]"^.4"c[Q:1/4=101]"^.2"A[Q:1/4=101]"^.6" | %68
[Q:1/4=100]"^.8" !fermata!z[Q:1/4=100]"^.3" B[Q:1/4=99]"^.6"A[Q:1/4=98]"^.7" G>[Q:1/4=97]"^.2"F[Q:1/4=96]"^.6"E | %69
[Q:1/4=95]"^.3" !fermata!z[Q:1/4=93]"^.8" _E[Q:1/4=92]"^.1"D[Q:1/4=90]"^.3" C>[Q:1/4=87]"^.1"B,[Q:1/4=86]A, | %70
[Q:1/4=83]"^.5" !fermata!z[K:bass][Q:1/4=80]"^.8" B,[Q:1/4=77]"^.9"A,-[Q:1/4=74]"^.8" A,/[Q:1/4=73]"^.1"G,/[Q:1/4=71]"^.4"F,[Q:1/4=67]"^.8"!fermata!E,[Q:1/4=69]"^.7" | %71
 F,G,A, B,CD |[K:treble] =E>DC F>EF/4E/4D/4E/4 | FGA Bcd | %74
[Q:1/4=68] e>[Q:1/4=67]"^.3"d[Q:1/4=66]"^.6"c[Q:1/4=64]"^.1" f>[Q:1/4=57]"^.3"e[Q:1/4=54]"^.1"f/4[Q:1/4=52]"^.2"e/4[Q:1/4=50]"^.3"d/4[Q:1/4=48]"^.2"e/4[Q:1/4=60] | %75
[Q:1/4=46] !fermata![Acf]6 |] %76
V:2
 G,6 G,6 | F,6 F,6 | G,4 F,2 E,3 F, G,2 | F,4 F,2 F,4 F,2 | G,6 G,4 G,2 | F,4 F,2 F,4 F,2 | %6
 G,4 G,2 G,4 G,2 | F,4 F,2 F,4 F,2 | C,4 G,,2 G,4 G,2 | F,4 F,2 F,4 F,2 | G,4 G,2 G,6 || F,6 F,6 | %12
 [G,,G,]4 [B,,G,]2 [C,=E,G,]4 [C,E,]2 | [F,,F,]4 [A,,F,]2 [B,,F,]4 [A,,F,]2 | %14
 [G,,G,]4 [B,,G,]2 [C,E,G,]4 [C,E,]2 | F,4 F,2 F,4 F,2 | G,4 G,2 G,6 | F,6 F,4 F,2 | %18
 G,4 G,2 G,4 G,2 | F,4 F,2 F,4 F,2 | G,4 G,2 G,4 G,2 | F,4 F,2 A,4 A,2 | B,4 A,2 B,4 G,2 || %23
 F,4 F,2 F,4 F,2 | G,4 G,2 G,4 G,2 | F,4 F,2 F,4 F,2 | G,4 G,2 G,4 G,2 | z2 F,2 C,2 z2 F,2 C,2 | %28
 G,4 G,2 G,4 G,2 | z2 F,2 C,2 z2 F,2 C,2 | C3 G, CG, C3 G, CG, | F,3 C, F,C, F,3 C, F,C, | %32
 C,3 G,, C,G,, C,3 G,, C,G,, | F,4 F,2 F,4 F,2 | G,6 G,3 F,E,D, || %35
[M:6/8] [F,,F,]3 [B,,F,]2 [F,,F,] | [C,G,]2 [G,,G,] [C,G,]3 | z F,C, z F,C, | G,2 G, G,2 G, | %39
 F,3 F,3 | G,3 G,3 | F,2 F, F,3 | G,2 G, G,2 G, | F,2 F, F,3 | G,2 G, G,3 | z F,C, z F,C, | %46
 G,2 G, G,2 G, | F,2 F, F,2 F, | G,2 G, G,2 G, | F,2 F, F,2 F, | G,2 G, G,2 x | F,,2 F,, F,2 F, | %52
 G,2 G, G,2 G, | F,2 F, F,2 F, | G,2 G, G,2 G, | F,2 F, F,2 F, | G,2 G, G,2 G, | %57
 F,,2 C, F,,B,,G,, | F,,2 F,, C,G,,C, | F,,2 C, F,,B,,G,, | F,,2 F,, C,G,,C, | z F,C, F,2 F, | %62
 F,2 F, E,3 | F,2 F, F,2 F, | E,2 A, G,3 | F,2 F, F,2 F, | G,2 G, G,2 G, | z F,C, z F,C, | %68
 z G,F, E,>F,G, | F,2 F, F,2 F, | F,,D,C, B,,>A,,C, | z F,C, z F,C, | G,2 A, F, G,2 | %73
 z F,C, z F,C, | G,2 A, F, G,2 | !fermata![F,,F,]6 |] %76
V:3
 x12 | x12 | C,4 D,2 C,4 C,2 | F,,4 B,,2 A,,4 F,,2 | C,4 G,,2 C,4 C,2 | F,,4 B,,2 A,,4 F,,2 | %6
 C,4 G,,2 B,,4 C,2 | [F,,C,]4 [F,,C,]2 [F,,C,]4 [F,,C,]2 | C,4 G,,2 B,,4 C,2 | %9
 F,,4 F,,2 B,,4 A,,2 | G,,4 B,,2 C,6 || F,,4 A,,2 B,,4 A,,2 | x12 | x12 | x12 | %15
 [F,,C,]4 [F,,C,]2 [F,,C,]4 [F,,C,]2 | G,,4 G,,2 C,6 | F,,6 F,,4 F,,2 | C,4 G,,2 C,4 C,2 | %19
 F,,4 B,,2 A,,4 F,,2 | C,4 G,,2 B,,4 C,2 | F,,4 F,,2 F,4 F,2 | B,,4 F,2 B,,4 C,2 || %23
 F,,4 F,,2 F,,4 F,,2 | C,4 C,2 C,4 C,2 | F,,4 F,,2 F,,4 F,,2 | C,4 C,2 C,4 C,2 | F,,6 F,,6 | %28
 C,4 C,2 C,4 C,2 | F,,4 F,,2 F,,4 F,,2 | C,4 C,2 C,4 C,2 | x12 | x12 | F,,4 F,,2 B,,4 A,,2 | %34
 G,,6 C,6 ||[M:6/8] x6 | x6 | F,,3 F,,3 | C,2 G,, C,2 C, | F,,B,,A,, F,,3 | C,3 C,3 | %41
 F,,2 F,, F,,3 | [C,E,]2 [C,E,] [C,E,]2 [C,E,] | F,,2 F,, F,,3 | [C,E,]2 [C,E,] [C,E,]3 | %45
 F,,3 F,,3 | [C,E,]2 [C,E,] [C,E,]2 [C,E,] | F,,2 F,, F,,2 F,, | [C,E,]2 [C,E,] [C,E,]2 [C,E,] | %49
 F,,2 F,, F,,2 F,, | C,2 C, C,2 C, | x3 F,,2 F,, | C,2 G,, C,2 C, | F,,2 F,, F,,2 F,, | %54
 C,2 G,, C,2 C, | F,,2 F,, F,,2 F,, | C,2 C, C,2 C, | x6 | x6 | x6 | x6 | F,,2 F,, z B,,A,, | %62
 z B,,F,, C,G,,C, | F,,2 B,, A,,2 F,, | C,2 C, C,3 | D,2 B,, A,,2 F,, | C,2 G,, C,2 C, | %67
 F,,2 F,, F,,2 F,, | C,3 C,2 C, | F,,2 F,, A,,2 F,, | x6 | F,,2 F,, F,,2 F,, | C,2 A,, D, C,2 | %73
 F,,3 F,,3 | C,2 A,, D, C,2 | x6 |] %76
V:4
 x12 | x12 | x12 | x12 | x12 | x12 | x12 | !arpeggio!x- x3 x8 | x12 | x12 | x12 || x12 | x12 | %13
 x12 | x12 | x12 | x12 | x12 | x12 | x12 | x12 | x12 | x12 || x12 | x12 | x12 | x12 | x12 | x12 | %29
 x12 | x12 | x12 | x12 | x12 | x12 ||[M:6/8] x6 | x6 | x6 | x6 | x6 | x6 | x6 | x6 | x6 | x6 | x6 | %46
 x6 | x6 | x6 | x6 | x6 | x6 | x6 | x6 | x6 | x6 | x6 | x6 | x6 | x6 | x6 | x6 | x6 | x6 | x6 | %65
 x6 | x6 | x6 | x6 | x6 | x6 | x6 | x6 | x6 | x6 | x6 |] %76
V:5
 x12 | x12 | x12 | x12 | x12 | x12 | x12 | x12 |[K:bass] x6[K:treble] x6 | x12 | x12 || x12 | x12 | %13
 x12 | x12 | x12 | x12 | x12 | x12 | x12 | x12 | x6 C3 D C2 | D3"^.3" D C2 D2 z2 z2 || %23
[K:bass] x10[K:treble] x2 | x12 | x12 | x12 | x12 | x12 | F3 C FC F3 C FC | E4 E2 E4 E2 | %31
 [FA]4 [FA]2 [FA]4 [FA]2 | [EG]4 [EG]2 [EG]4 [EG]2 | x12 | x12 ||[M:6/8] x6 | x6 | x6 | x6 | x6 | %40
 x6 | x6 | x6 | x6 | x6 | x6 | x6 | x6 | x6 | x6 | x3[K:bass] x3 | x6 |[K:treble] x6 | x6 | x6 | %55
 x6 | x3[K:bass] x3 | F,2 E, F,D,E, | F,2 F, E,G,E, | F,2 E, F,D,E, | F,2 F, E,G,E, | %61
[K:treble] x6 | x6 | x6 | x6 | x6 | x6 | x6 | x6 | x6 | x[K:bass] x5 | x6 |[K:treble] x6 | x6 | %74
 x6 | x6 |] %76

